icons/desktop/16/svg/storage-16.svg

<svg width="16" height="16" viewBox="0 0 16 16" fill="none" xmlns="http://www.w3.org/2000/svg">
<path d="M4 7C4.55228 7 5 7.44772 5 8C5 8.55228 4.55228 9 4 9C3.44772 9 3 8.55228 3 8C3 7.44772 3.44772 7 4 7Z" fill="black"/>
<path fill-rule="evenodd" clip-rule="evenodd" d="M8 3C9.4553 3 11.0559 3.05884 12.7773 3.21289L13.5225 3.28516L13.7812 3.32422C15.0525 3.57884 16 4.69884 16 6.02539V9.97461C16 11.3741 14.9513 12.5653 13.5459 12.7119C11.8584 12.8874 10.0011 13 8 13C6.33683 13 4.48373 12.9228 2.47754 12.7148C1.07827 12.5696 0 11.3897 0 9.97461V6.02539C0 4.62588 1.04865 3.43465 2.4541 3.28809C4.14156 3.11265 5.99888 3 8 3ZM8 4.5C6.05512 4.5 4.24992 4.60971 2.60938 4.78027C1.9811 4.84597 1.5 5.38109 1.5 6.02539V9.97461C1.5 10.6135 1.99009 11.1559 2.63281 11.2227C4.58244 11.4247 6.3833 11.5 8 11.5C9.94487 11.5 11.7501 11.3903 13.3906 11.2197C14.0189 11.154 14.5 10.6189 14.5 9.97461V6.02539C14.5 5.38652 14.0099 4.84407 13.3672 4.77734C11.4176 4.5753 9.6167 4.5 8 4.5Z" fill="black"/>
</svg>

<!-- This Source Code Form is subject to the terms of the Mozilla Public
   - License, v. 2.0. If a copy of the MPL was not distributed with this
   - file, You can obtain one at http://mozilla.org/MPL/2.0/. -->
<svg xmlns="http://www.w3.org/2000/svg" width="16" height="16" fill="context-fill" fill-opacity="context-fill-opacity" viewBox="0 0 16 16">
    <path d="M4 7a1 1 0 1 1 0 2 1 1 0 0 1 0-2" />
    <path fill-rule="evenodd" d="M8 3c1.455 0 3.056.059 4.777.213l.746.072.258.04A2.76 2.76 0 0 1 16 6.024v3.95c0 1.4-1.049 2.59-2.454 2.737a53.6 53.6 0 0 1-11.068.003A2.76 2.76 0 0 1 0 9.975v-3.95c0-1.4 1.049-2.59 2.454-2.737A54 54 0 0 1 8 3m0 1.5c-1.945 0-3.75.11-5.39.28-.629.066-1.11.601-1.11 1.245v3.95c0 .639.49 1.18 1.133 1.248a52 52 0 0 0 10.758-.003c.628-.066 1.109-.601 1.109-1.245v-3.95c0-.638-.49-1.18-1.133-1.248A52 52 0 0 0 8 4.5" clip-rule="evenodd" />
</svg>
